humanity-icon-theme/Humanity/status/48/aptdaemon-delete.svg

<?xml version="1.0" encoding="UTF-8" standalone="no"?>
<!-- Created with Inkscape (http://www.inkscape.org/) -->
<svg
   xmlns:svg="http://www.w3.org/2000/svg"
   xmlns="http://www.w3.org/2000/svg"
   xmlns:xlink="http://www.w3.org/1999/xlink"
   version="1.0"
   width="48"
   height="48"
   id="svg2562">
  <defs
     id="defs2564">
    <linearGradient
       id="linearGradient3275">
      <stop
         id="stop3277"
         style="stop-color:#ffffff;stop-opacity:0"
         offset="0" />
      <stop
         id="stop3283"
         style="stop-color:#ffffff;stop-opacity:1"
         offset="0.245" />
      <stop
         id="stop3285"
         style="stop-color:#ffffff;stop-opacity:1"
         offset="0.77350003" />
      <stop
         id="stop3279"
         style="stop-color:#ffffff;stop-opacity:0"
         offset="1" />
    </linearGradient>
    <linearGradient
       x1="44.994774"
       y1="17.5"
       x2="3.0052247"
       y2="17.5"
       id="linearGradient2815"
       xlink:href="#linearGradient3275"
       gradientUnits="userSpaceOnUse"
       spreadMethod="reflect" />
    <linearGradient
       id="linearGradient3827">
      <stop
         id="stop3829"
         style="stop-color:#ffffff;stop-opacity:1"
         offset="0" />
      <stop
         id="stop4295"
         style="stop-color:#ffffff;stop-opacity:1"
         offset="0.3021296" />
      <stop
         id="stop4293"
         style="stop-color:#ffffff;stop-opacity:0.6901961"
         offset="0.34361121" />
      <stop
         id="stop3832"
         style="stop-color:#ffffff;stop-opacity:0"
         offset="1" />
    </linearGradient>
    <linearGradient
       x1="26"
       y1="22"
       x2="26"
       y2="8"
       id="linearGradient2813"
       xlink:href="#linearGradient3827"
       gradientUnits="userSpaceOnUse" />
    <linearGradient
       id="linearGradient4559">
      <stop
         id="stop4561"
         style="stop-color:#ffffff;stop-opacity:0"
         offset="0" />
      <stop
         id="stop4563"
         style="stop-color:#ffffff;stop-opacity:0"
         offset="1" />
    </linearGradient>
    <linearGradient
       x1="23.451576"
       y1="30.554907"
       x2="43.00663"
       y2="45.934479"
       id="linearGradient2811"
       xlink:href="#linearGradient4559"
       gradientUnits="userSpaceOnUse"
       gradientTransform="matrix(1.2822251,0,0,1.1746872,-6.0701918,-5.3031677)" />
    <linearGradient
       id="linearGradient3295">
      <stop
         id="stop3297"
         style="stop-color:#c9af8b;stop-opacity:1"
         offset="0" />
      <stop
         id="stop3299"
         style="stop-color:#ad8757;stop-opacity:1"
         offset="0.23942046" />
      <stop
         id="stop3301"
         style="stop-color:#c2a57f;stop-opacity:1"
         offset="0.27582464" />
      <stop
         id="stop3303"
         style="stop-color:#9d7d53;stop-opacity:1"
         offset="1" />
    </linearGradient>
    <linearGradient
       x1="15.464298"
       y1="7.9756851"
       x2="15.464298"
       y2="45.04248"
       id="linearGradient2809"
       xlink:href="#linearGradient3295"
       gradientUnits="userSpaceOnUse" />
    <linearGradient
       id="linearGradient3199">
      <stop
         id="stop3201"
         style="stop-color:#dac197;stop-opacity:1"
         offset="0" />
      <stop
         id="stop3203"
         style="stop-color:#c1a581;stop-opacity:1"
         offset="0.23942046" />
      <stop
         id="stop3205"
         style="stop-color:#dbc298;stop-opacity:1"
         offset="0.27582464" />
      <stop
         id="stop3207"
         style="stop-color:#a68b60;stop-opacity:1"
         offset="1" />
    </linearGradient>
    <linearGradient
       x1="24.822832"
       y1="15.377745"
       x2="24.996943"
       y2="37.27668"
       id="linearGradient2807"
       xlink:href="#linearGradient3199"
       gradientUnits="userSpaceOnUse"
       gradientTransform="matrix(1.2822251,0,0,1.5572619,-6.0701918,-15.290756)" />
    <radialGradient
       cx="5"
       cy="41.5"
       r="5"
       fx="5"
       fy="41.5"
       id="radialGradient2805"
       xlink:href="#linearGradient3681"
       gradientUnits="userSpaceOnUse"
       gradientTransform="matrix(0.5938225,0,0,1.5366531,41.140892,-103.93618)" />
    <linearGradient
       id="linearGradient3703">
      <stop
         id="stop3705"
         style="stop-color:#000000;stop-opacity:0"
         offset="0" />
      <stop
         id="stop3711"
         style="stop-color:#000000;stop-opacity:1"
         offset="0.5" />
      <stop
         id="stop3707"
         style="stop-color:#000000;stop-opacity:0"
         offset="1" />
    </linearGradient>
    <linearGradient
       x1="17.554192"
       y1="46.000275"
       x2="17.554192"
       y2="34.999718"
       id="linearGradient2803"
       xlink:href="#linearGradient3703"
       gradientUnits="userSpaceOnUse"
       gradientTransform="matrix(1.7570316,0,0,1.3969574,-17.394014,-16.411698)" />
    <linearGradient
       id="linearGradient3681">
      <stop
         id="stop3683"
         style="stop-color:#000000;stop-opacity:1"
         offset="0" />
      <stop
         id="stop3685"
         style="stop-color:#000000;stop-opacity:0"
         offset="1" />
    </linearGradient>
    <radialGradient
       cx="5"
       cy="41.5"
       r="5"
       fx="5"
       fy="41.5"
       id="radialGradient2801"
       xlink:href="#linearGradient3681"
       gradientUnits="userSpaceOnUse"
       gradientTransform="matrix(0.5938225,0,0,1.5366531,-6.6594735,-103.93618)" />
    <linearGradient
       id="linearGradient2490">
      <stop
         id="stop2492"
         style="stop-color:#791235;stop-opacity:1"
         offset="0" />
      <stop
         id="stop2494"
         style="stop-color:#dd3b27;stop-opacity:1"
         offset="1" />
    </linearGradient>
    <linearGradient
       x1="18.379412"
       y1="44.980297"
       x2="18.379412"
       y2="3.0816143"
       id="linearGradient2560"
       xlink:href="#linearGradient2490"
       gradientUnits="userSpaceOnUse"
       gradientTransform="matrix(0.6635067,0,0,0.6635068,18.075796,18.075797)" />
    <linearGradient
       id="linearGradient3242">
      <stop
         id="stop3244"
         style="stop-color:#f8b17e;stop-opacity:1"
         offset="0" />
      <stop
         id="stop3246"
         style="stop-color:#e35d4f;stop-opacity:1"
         offset="0.26238" />
      <stop
         id="stop3248"
         style="stop-color:#c6262e;stop-opacity:1"
         offset="0.66093999" />
      <stop
         id="stop3250"
         style="stop-color:#690b54;stop-opacity:1"
         offset="1" />
    </linearGradient>
    <radialGradient
       cx="23.895569"
       cy="3.9900031"
       r="20.397499"
       fx="23.895569"
       fy="3.9900031"
       id="radialGradient2558"
       xlink:href="#linearGradient3242"
       gradientUnits="userSpaceOnUse"
       gradientTransform="matrix(0,1.5835631,-2.0902753,0,42.340162,-18.357312)" />
    <linearGradient
       id="linearGradient4873">
      <stop
         id="stop4875"
         style="stop-color:#ffffff;stop-opacity:1"
         offset="0" />
      <stop
         id="stop4877"
         style="stop-color:#ffffff;stop-opacity:0"
         offset="1" />
    </linearGradient>
    <linearGradient
       x1="63.397362"
       y1="-12.489107"
       x2="63.397362"
       y2="5.4675598"
       id="linearGradient2555"
       xlink:href="#linearGradient4873"
       gradientUnits="userSpaceOnUse"
       gradientTransform="matrix(1.4293065,0,0,1.429274,-54.903442,39.017944)" />
    <linearGradient
       id="linearGradient3781">
      <stop
         id="stop3783"
         style="stop-color:#ffffff;stop-opacity:1"
         offset="0" />
      <stop
         id="stop3785"
         style="stop-color:#ffffff;stop-opacity:0"
         offset="1" />
    </linearGradient>
    <linearGradient
       x1="24.481066"
       y1="5.0808945"
       x2="24.481066"
       y2="45.074459"
       id="linearGradient2552"
       xlink:href="#linearGradient3781"
       gradientUnits="userSpaceOnUse"
       gradientTransform="matrix(0.6922803,0,0,0.6922803,17.385229,16.692949)" />
  </defs>
  <g
     id="layer1">
    <g
       transform="translate(6.1178597e-7,-0.9999989)"
       id="g2791">
      <g
         transform="matrix(0.9926623,0,0,0.9761474,0.2751901,1.2929634)"
         id="g3305"
         style="opacity:0.4;display:inline">
        <rect
           width="2.9601951"
           height="15.366531"
           x="-3.6903627"
           y="-47.848343"
           transform="scale(-1,-1)"
           id="rect2484"
           style="opacity:1;fill:url(#radialGradient2801);fill-opacity:1;stroke:none;stroke-width:1;stroke-linecap:round;stroke-linejoin:miter;stroke-miterlimit:4;stroke-dasharray:none;stroke-dashoffset:1.20000057;stroke-opacity:1" />
        <rect
           width="40.41172"
           height="15.366531"
           x="3.6903627"
           y="32.481812"
           id="rect2486"
           style="opacity:1;fill:url(#linearGradient2803);fill-opacity:1;stroke:none;stroke-width:1;stroke-linecap:round;stroke-linejoin:miter;stroke-miterlimit:4;stroke-dasharray:none;stroke-dashoffset:1.20000057;stroke-opacity:1" />
        <rect
           width="2.9601951"
           height="15.366531"
           x="44.110001"
           y="-47.848343"
           transform="scale(1,-1)"
           id="rect3444"
           style="opacity:1;fill:url(#radialGradient2805);fill-opacity:1;stroke:none;stroke-width:1;stroke-linecap:round;stroke-linejoin:miter;stroke-miterlimit:4;stroke-dasharray:none;stroke-dashoffset:1.20000057;stroke-opacity:1;display:inline" />
      </g>
      <path
         d="M 9.010725,8.5 L 38.508448,8.5 C 40.230433,8.5 41.00537,8.2134495 41.5,9.5 L 44.501734,17.5 L 44.501734,43.173912 C 44.501734,44.727216 44.604664,44.489888 42.882671,44.489888 L 5.1173288,44.489888 C 3.3953364,44.489888 3.4982653,44.727216 3.4982653,43.173912 L 3.4982653,17.5 L 6.5,9.5 C 6.9808316,8.2394378 7.2887325,8.5 9.010725,8.5 z"
         id="path2488"
         style="fill:url(#linearGradient2807);fill-opacity:1;fill-rule:nonzero;stroke:url(#linearGradient2809);stroke-width:0.99420077;stroke-linecap:round;stroke-linejoin:miter;marker:none;marker-start:none;marker-mid:none;marker-end:none;stroke-miterlimit:4;stroke-dasharray:none;stroke-dashoffset:0;stroke-opacity:1;visibility:visible;display:block;overflow:visible" />
      <path
         d="M 9.948194,9.5129459 L 37.601066,9.5129459 C 39.215359,9.5129459 40.214446,10.069482 40.890587,11.598974 L 43.219527,18.018695 L 43.219527,41.163252 C 43.219527,42.623928 42.400768,43.359337 40.786471,43.359337 L 7.0532679,43.359337 C 5.4389745,43.359337 4.7804918,42.55051 4.7804918,41.089833 L 4.7804918,18.018695 L 7.0343027,11.461335 C 7.4850649,10.275943 8.3338968,9.5129459 9.948194,9.5129459 z"
         id="path2490"
         style="opacity:0.50549454;fill:none;fill-opacity:1;fill-rule:nonzero;stroke:url(#linearGradient2811);stroke-width:0.74211526;stroke-linecap:butt;stroke-linejoin:miter;marker:none;marker-start:none;marker-mid:none;marker-end:none;stroke-miterlimit:4;stroke-dasharray:none;stroke-dashoffset:0;stroke-opacity:1;visibility:visible;display:block;overflow:visible" />
      <path
         d="M 22,8 C 23.333333,8 24.666667,8 26,8 C 26,12.666667 26,17.333333 26,22 C 25.606271,22 25.212542,22 24.818813,22 C 24.415688,22 24.012563,22 23.609438,22 C 23.284909,22 22.960381,22 22.635853,22 C 22.423902,22 22.211951,22 22,22 C 22,17.333333 22,12.666667 22,8 z"
         id="rect3326"
         style="opacity:0.4;fill:url(#linearGradient2813);fill-opacity:1;fill-rule:nonzero;stroke:none;stroke-width:1;stroke-linecap:square;stroke-linejoin:round;marker:none;marker-start:none;marker-mid:none;marker-end:none;stroke-miterlimit:4;stroke-dasharray:none;stroke-dashoffset:0;stroke-opacity:1;visibility:visible;display:inline;overflow:visible;enable-background:accumulate" />
      <path
         d="M 3.5052248,17.5 L 44.494775,17.5"
         id="path3273"
         style="opacity:0.4;fill:none;fill-rule:evenodd;stroke:url(#linearGradient2815);stroke-width:1px;stroke-linecap:square;stroke-linejoin:miter;stroke-opacity:1;display:inline" />
    </g>
    <path
       d="M 33.999959,20.501743 C 26.55211,20.501743 20.501743,26.552108 20.501743,33.999957 C 20.501743,41.447808 26.55211,47.498176 33.999959,47.498173 C 41.447806,47.498173 47.49818,41.447808 47.498173,33.999957 C 47.498173,26.552108 41.447806,20.501743 33.999959,20.501743 z M 33.999959,24.835271 C 39.063492,24.835271 43.164644,28.936425 43.164644,33.999957 C 43.164644,36.12508 42.428324,38.064969 41.215592,39.619031 L 29.604228,25.954939 C 30.908796,25.241132 32.407292,24.835271 33.999959,24.835271 z M 26.659915,28.526027 L 38.229816,42.127915 C 36.964385,42.787183 35.526223,43.164644 33.999959,43.164644 C 28.936427,43.164643 24.835272,39.063491 24.835272,33.999957 C 24.835272,31.942898 25.516661,30.054982 26.659915,28.526027 z"
       id="path2506"
       style="fill:url(#radialGradient2558);fill-opacity:1;stroke:url(#linearGradient2560);stroke-width:1.00365412;stroke-linecap:round;stroke-linejoin:round;stroke-miterlimit:4;stroke-dasharray:none;stroke-dashoffset:0;stroke-opacity:1" />
    <path
       d="M 46.500002,33.999556 C 46.500002,40.903339 40.903148,46.5 34.00016,46.5 C 27.096537,46.5 21.5,40.903276 21.5,33.999556 C 21.5,27.096093 27.096537,21.499999 34.00016,21.499999 C 40.903148,21.499999 46.500002,27.096093 46.500002,33.999556 L 46.500002,33.999556 z"
       id="path2508"
       style="opacity:0.4;fill:none;fill-opacity:1;fill-rule:nonzero;stroke:url(#linearGradient2555);stroke-width:1;stroke-miterlimit:4;stroke-dasharray:none;stroke-opacity:1" />
    <path
       d="M 28.964019,26.634697 L 40.638915,40.347644"
       id="path3270"
       style="opacity:0.4;fill:none;fill-rule:evenodd;stroke:url(#linearGradient2552);stroke-width:0.99999994px;stroke-linecap:round;stroke-linejoin:miter;stroke-opacity:1" />
  </g>
</svg>

<?xml version="1.0" encoding="UTF-8" standalone="no"?>
<!-- Created with Inkscape (http://www.inkscape.org/) -->
<svg id="svg2562" xmlns="http://www.w3.org/2000/svg" height="48" width="48" version="1.0" xmlns:xlink="http://www.w3.org/1999/xlink">
 <defs id="defs2564">
  <linearGradient id="linearGradient2815" y2="17.5" spreadMethod="reflect" gradientUnits="userSpaceOnUse" x2="3.0052" y1="17.5" x1="44.995">
   <stop id="stop3277" style="stop-color:#fff;stop-opacity:0" offset="0"/>
   <stop id="stop3283" style="stop-color:#fff" offset=".245"/>
   <stop id="stop3285" style="stop-color:#fff" offset=".77350"/>
   <stop id="stop3279" style="stop-color:#fff;stop-opacity:0" offset="1"/>
  </linearGradient>
  <linearGradient id="linearGradient2813" y2="8" gradientUnits="userSpaceOnUse" x2="26" y1="22" x1="26">
   <stop id="stop3829" style="stop-color:#fff" offset="0"/>
   <stop id="stop4295" style="stop-color:#fff" offset=".30213"/>
   <stop id="stop4293" style="stop-color:#fff;stop-opacity:.69020" offset=".34361"/>
   <stop id="stop3832" style="stop-color:#fff;stop-opacity:0" offset="1"/>
  </linearGradient>
  <linearGradient id="linearGradient2811" y2="45.934" gradientUnits="userSpaceOnUse" x2="43.007" gradientTransform="matrix(1.2822 0 0 1.1747 -6.0702 -5.3032)" y1="30.555" x1="23.452">
   <stop id="stop4561" style="stop-color:#fff;stop-opacity:0" offset="0"/>
   <stop id="stop4563" style="stop-color:#fff;stop-opacity:0" offset="1"/>
  </linearGradient>
  <linearGradient id="linearGradient2809" y2="45.042" gradientUnits="userSpaceOnUse" x2="15.464" y1="7.9757" x1="15.464">
   <stop id="stop3297" style="stop-color:#c9af8b" offset="0"/>
   <stop id="stop3299" style="stop-color:#ad8757" offset=".23942"/>
   <stop id="stop3301" style="stop-color:#c2a57f" offset=".27582"/>
   <stop id="stop3303" style="stop-color:#9d7d53" offset="1"/>
  </linearGradient>
  <linearGradient id="linearGradient2807" y2="37.277" gradientUnits="userSpaceOnUse" x2="24.997" gradientTransform="matrix(1.2822 0 0 1.5573 -6.0702 -15.291)" y1="15.378" x1="24.823">
   <stop id="stop3201" style="stop-color:#dac197" offset="0"/>
   <stop id="stop3203" style="stop-color:#c1a581" offset=".23942"/>
   <stop id="stop3205" style="stop-color:#dbc298" offset=".27582"/>
   <stop id="stop3207" style="stop-color:#a68b60" offset="1"/>
  </linearGradient>
  <radialGradient id="radialGradient2805" xlink:href="#linearGradient3681" gradientUnits="userSpaceOnUse" cy="41.5" cx="5" gradientTransform="matrix(.59382 0 0 1.5367 41.141 -103.94)" r="5"/>
  <linearGradient id="linearGradient2803" y2="35" gradientUnits="userSpaceOnUse" x2="17.554" gradientTransform="matrix(1.757 0 0 1.397 -17.394 -16.412)" y1="46" x1="17.554">
   <stop id="stop3705" style="stop-opacity:0" offset="0"/>
   <stop id="stop3711" offset=".5"/>
   <stop id="stop3707" style="stop-opacity:0" offset="1"/>
  </linearGradient>
  <linearGradient id="linearGradient3681">
   <stop id="stop3683" offset="0"/>
   <stop id="stop3685" style="stop-opacity:0" offset="1"/>
  </linearGradient>
  <radialGradient id="radialGradient2801" xlink:href="#linearGradient3681" gradientUnits="userSpaceOnUse" cy="41.5" cx="5" gradientTransform="matrix(.59382 0 0 1.5367 -6.6595 -103.94)" r="5"/>
  <linearGradient id="linearGradient2560" y2="3.0816" gradientUnits="userSpaceOnUse" x2="18.379" gradientTransform="matrix(.66351 0 0 .66351 18.076 18.076)" y1="44.98" x1="18.379">
   <stop id="stop2492" style="stop-color:#791235" offset="0"/>
   <stop id="stop2494" style="stop-color:#dd3b27" offset="1"/>
  </linearGradient>
  <radialGradient id="radialGradient2558" gradientUnits="userSpaceOnUse" cy="3.99" cx="23.896" gradientTransform="matrix(0 1.5836 -2.0903 0 42.34 -18.357)" r="20.397">
   <stop id="stop3244" style="stop-color:#f8b17e" offset="0"/>
   <stop id="stop3246" style="stop-color:#e35d4f" offset=".26238"/>
   <stop id="stop3248" style="stop-color:#c6262e" offset=".66094"/>
   <stop id="stop3250" style="stop-color:#690b54" offset="1"/>
  </radialGradient>
  <linearGradient id="linearGradient2555" y2="5.4676" gradientUnits="userSpaceOnUse" x2="63.397" gradientTransform="matrix(1.4293 0 0 1.4293 -54.903 39.018)" y1="-12.489" x1="63.397">
   <stop id="stop4875" style="stop-color:#fff" offset="0"/>
   <stop id="stop4877" style="stop-color:#fff;stop-opacity:0" offset="1"/>
  </linearGradient>
  <linearGradient id="linearGradient2552" y2="45.074" gradientUnits="userSpaceOnUse" x2="24.481" gradientTransform="matrix(.69228 0 0 .69228 17.385 16.693)" y1="5.0809" x1="24.481">
   <stop id="stop3783" style="stop-color:#fff" offset="0"/>
   <stop id="stop3785" style="stop-color:#fff;stop-opacity:0" offset="1"/>
  </linearGradient>
 </defs>
 <g id="layer1">
  <g id="g2791" transform="translate(6.1179e-7 -1)">
   <g id="g3305" style="opacity:.4" transform="matrix(.99266 0 0 .97615 .27519 1.293)">
    <rect id="rect2484" style="opacity:1;fill:url(#radialGradient2801)" transform="scale(-1)" height="15.367" width="2.9602" y="-47.848" x="-3.6904"/>
    <rect id="rect2486" style="opacity:1;fill:url(#linearGradient2803)" height="15.367" width="40.412" y="32.482" x="3.6904"/>
    <rect id="rect3444" style="opacity:1;fill:url(#radialGradient2805)" transform="scale(1,-1)" height="15.367" width="2.9602" y="-47.848" x="44.11"/>
   </g>
   <path id="path2488" style="stroke:url(#linearGradient2809);stroke-linecap:round;stroke-width:.99420;display:block;fill:url(#linearGradient2807)" d="m9.0107 8.5h29.497c1.722 0 2.497-0.2866 2.992 1l3.002 8v25.674c0 1.553 0.103 1.316-1.619 1.316h-37.766c-1.7217 0-1.6187 0.237-1.6187-1.316v-25.674l3.0017-8c0.4808-1.2606 0.7887-1 2.5107-1z"/>
   <path id="path2490" style="opacity:.50549;stroke:url(#linearGradient2811);stroke-width:.74212;display:block;fill:none" d="m9.9482 9.5129h27.653c1.614 0 2.613 0.5561 3.29 2.0861l2.329 6.42v23.144c0 1.461-0.819 2.196-2.434 2.196h-33.733c-1.614 0-2.2725-0.808-2.2725-2.269v-23.071l2.2538-6.558c0.4508-1.185 1.2996-1.9481 2.9139-1.9481z"/>
   <path id="rect3326" style="opacity:.4;fill:url(#linearGradient2813)" d="m22 8h4v14h-1.181-1.21-0.973-0.636v-14z"/>
   <path id="path3273" style="opacity:.4;stroke:url(#linearGradient2815);stroke-linecap:square;stroke-width:1px;fill:none" d="m3.5052 17.5h40.99"/>
  </g>
  <path id="path2506" style="stroke-linejoin:round;stroke:url(#linearGradient2560);stroke-linecap:round;stroke-width:1.0037;fill:url(#radialGradient2558)" d="m34 20.502c-7.448 0-13.498 6.05-13.498 13.498s6.05 13.498 13.498 13.498 13.498-6.05 13.498-13.498-6.05-13.498-13.498-13.498zm0 4.333c5.063 0 9.165 4.101 9.165 9.165 0 2.125-0.737 4.065-1.949 5.619l-11.612-13.664c1.305-0.714 2.803-1.12 4.396-1.12zm-7.34 3.691l11.57 13.602c-1.266 0.659-2.704 1.037-4.23 1.037-5.064 0-9.165-4.102-9.165-9.165 0-2.057 0.682-3.945 1.825-5.474z"/>
  <path id="path2508" style="opacity:.4;stroke:url(#linearGradient2555);fill:none" d="m46.5 34c0 6.903-5.597 12.5-12.5 12.5s-12.5-5.597-12.5-12.5c0-6.904 5.597-12.5 12.5-12.5s12.5 5.596 12.5 12.5z"/>
  <path id="path3270" style="opacity:.4;stroke:url(#linearGradient2552);stroke-linecap:round;stroke-width:1px;fill:none" d="m28.964 26.635l11.675 13.713"/>
 </g>
</svg>
